symbolic/32x32/places/folder-palebrown-image-people.svg

<svg xmlns="http://www.w3.org/2000/svg" width="32" height="32" version="1"><rect style="opacity:.2" width="28" height="18" x="2" y="11" rx="1.4" ry="1.4"/><path style="fill:#bea389" d="M2 22.6c0 .776.624 1.4 1.4 1.4h25.2c.776 0 1.4-.624 1.4-1.4V7.4c0-.776-.624-1.4-1.4-1.4H16c-2.1 0-2.8-3-4.9-3H3.4C2.624 3 2 3.624 2 4.4"/><rect style="opacity:.2" width="28" height="18" x="2" y="9" rx="1.4" ry="1.4"/><rect style="fill:#e4e4e4" width="24" height="11" x="4" y="8" rx="1.4" ry="1.4"/><rect style="fill:#d1bfae" width="28" height="18" x="2" y="10" rx="1.4" ry="1.4"/><path style="opacity:.1;fill:#fff" d="M3.4 3C2.625 3 2 3.625 2 4.4v1C2 4.625 2.625 4 3.4 4h7.7c2.1 0 2.8 3 4.9 3h12.6c.775 0 1.4.625 1.4 1.4v-1c0-.775-.625-1.4-1.4-1.4H16c-2.1 0-2.8-3-4.9-3z"/><path style="fill:#a38d7b" d="M13.41 16.301a.465.465 0 0 0-.101.035c-.323.151-.407.623-.186 1.06.178.352.493.57.779.563C14.118 19.128 14.976 20 16 20c1.024 0 1.882-.872 2.098-2.041.286.007.601-.211.779-.563.221-.437.137-.909-.186-1.06a.465.465 0 0 0-.101-.035C18.548 15.023 17.406 14 16 14s-2.548 1.023-2.59 2.301zM15.996 21c-.583 0-1.109-.29-1.496-.752-1.631.241-3.375.59-3.484.988-.002.006.001.013 0 .018-.005.02-.006.038-.008.058-.001.01-.008.016-.008.026v1.394c0 .149.111.268.25.268h9.5c.139 0 .25-.119.25-.268v-1.404c-.001-.032-.015-.06-.023-.092-.116-.414-1.806-.777-3.409-1.019a1.443 1.443 0 0 1-.507.443l-.002.002a1.852 1.852 0 0 1-1.055.338"/></svg>

<svg xmlns="http://www.w3.org/2000/svg" width="32" height="32" version="1">
 <rect style="opacity:0.2" width="28" height="18" x="2" y="11" rx="1.4" ry="1.4"/>
 <path style="fill:#bea389" d="M 2,22.6 C 2,23.376 2.6244,24 3.4,24 H 28.6 C 29.376,24 30,23.376 30,22.6 V 7.4 C 30,6.6244 29.376,6 28.6,6 H 16 C 13.9,6 13.2,3 11.1,3 H 3.4 C 2.6244,3 2,3.6244 2,4.4"/>
 <rect style="opacity:0.2" width="28" height="18" x="2" y="9" rx="1.4" ry="1.4"/>
 <rect style="fill:#e4e4e4" width="24" height="11" x="4" y="8" rx="1.4" ry="1.4"/>
 <rect style="fill:#d1bfae" width="28" height="18" x="2" y="10" rx="1.4" ry="1.4"/>
 <path style="opacity:0.1;fill:#ffffff" d="M 3.4004,3 C 2.6248,3 2,3.6248 2,4.4004 V 5.4004 C 2,4.6248 2.6248,4 3.4004,4 H 11.1 C 13.2,4 13.9,7 16,7 H 28.6 C 29.375,7 30,7.6248 30,8.4004 V 7.4004 C 30,6.6248 29.375,6 28.6,6 H 16 C 13.9,6 13.2,3 11.1,3 Z"/>
 <path style="fill:#a38d7b" d="M 13.41,16.301 C 13.376,16.308 13.341,16.321 13.309,16.336 12.986,16.487 12.902,16.959 13.123,17.396 13.301,17.748 13.616,17.966 13.902,17.959 14.118,19.128 14.976,20 16,20 17.024,20 17.882,19.128 18.098,17.959 18.384,17.966 18.699,17.748 18.877,17.396 19.098,16.959 19.014,16.487 18.691,16.336 18.659,16.321 18.624,16.308 18.59,16.301 18.548,15.023 17.406,14 16,14 14.594,14 13.452,15.023 13.41,16.301 Z M 15.996,21 C 15.413,21 14.887,20.71 14.5,20.248 12.869,20.489 11.125,20.838 11.016,21.236 11.014,21.242 11.017,21.249 11.016,21.254 11.011,21.274 11.01,21.292 11.008,21.312 11.007,21.322 11,21.328 11,21.338 V 22.732 C 11,22.881 11.111,23 11.25,23 H 20.75 C 20.889,23 21,22.881 21,22.732 V 21.328 C 20.999,21.296 20.985,21.268 20.977,21.236 20.861,20.822 19.171,20.459 17.568,20.217 17.445,20.389 17.281,20.544 17.061,20.66 L 17.059,20.662 C 16.747,20.877 16.386,21 16.004,21"/>
</svg>
